X: 421
T: My mind will never be "aisy"
C:anon.
O:Ireland
B:Francis O'Neill: "The Dance Music of Ireland" (1907) no. 421
R:Hop, slip jig
Z:Transcribed by Frank Nordberg - http://www.musicaviva.com
F:http://www.musicaviva.com/abc/tunes/ireland/oneill-1001/oneill-1001-042
1.abc
M:9/8
L:1/8
K:Em
(g/f/)|edB BAB G2A|Bdd deB d2(g/f/)|edB BAB G2A|Bee ef^d e2:|z|def gaf g2
d|
Bdd deB d3|efg agf edB|B2e ef^d e3|def gaf g2d|Bdd deB d2(f/g/)|agf gfe e
dB|B2e ef^d e2|]
W:
W:
W:  From Musica Viva - http://www.musicaviva.com
W:  the Internet center for free sheet music downloads.


